input plain;
beginfig(251)
  draw (0,0) -- (5cm,0) withcolor red;
  draw btex a etex ;
  draw btex b etex shifted (1cm,0);
  draw btex c etex shifted (2cm,0);
  draw btex d etex shifted (3cm,0);
  draw btex e etex shifted (4cm,0);
endfig;
end;
