input plain;
input graph;
beginfig(282)
    draw begingraph(3cm,2cm)
      path p;
      gdata("data1",
            v,
            augment.p(v1,v2);
           );
      gdraw p;
    endgraph;

endfig;
end;
