input plain;
beginfig(19)
  draw (-1.5cm,0)--(1.5cm,0);
  draw (0,-1.5cm)--(0,1.5cm);
  drawarrow (0,0)--(1cm,0)
            withpen pencircle scaled 2bp;
  drawarrow (0,0)--(0,1cm)
            withpen pencircle scaled 2bp;
endfig;
end;
