input plain;
beginfig(87)
  u:=3mm;
  fill fullcircle scaled 2u withcolor .8white;
  fill fullcircle scaled u shifted (u*dir30)
       withcolor .8white;
  fill fullcircle scaled u shifted (u*dir150)
       withcolor .8white;
endfig;
end;
