input plain;
beginfig(37)
    draw (0,0) .. (0,1cm) .. (1cm,0) .. (1cm,1cm);
    draw (0,0)     withpen pencircle scaled 4bp;
    draw (0,1cm)   withpen pencircle scaled 4bp;
    draw (1cm,0)   withpen pencircle scaled 4bp;
    draw (1cm,1cm) withpen pencircle scaled 4bp;

endfig;
end;
