input plain;
input graph;
beginfig(294)
  draw begingraph(3cm,2cm)
    gdraw "data1";
    glabel.bot(btex X axis etex, OUT);
    glabel.lft(btex Y axis etex rotated 90, OUT);
  endgraph;
endfig;
end;
