input plain;
beginfig(73)
    path p;
    p := (5mm,-5mm) {right} .. (2cm,0);
    draw p;
    draw p rotated 10;
    draw p rotated 20;
    draw p rotated 30;
    draw p rotated 40;
    draw p rotated 50;
    draw p rotated 60;
    draw p rotated 70;
    draw p rotated 80;
    draw p rotated 90;

endfig;
end;
